modules/feather/icons/hard-drive.svg

<?xml version="1.0" encoding="UTF-8"?>
<svg width="24px" height="24px" viewBox="0 0 24 24" version="1.1" xmlns="http://www.w3.org/2000/svg" xmlns:xlink="http://www.w3.org/1999/xlink">
    <g id="hard-drive" fill-rule="evenodd">
        <path d="M22.8851708,11.5343001 C22.9413874,11.6409323 22.9789004,11.758956 22.9933449,11.8840062 C22.9977361,11.9224275 23,11.9611469 23,12 L23,18 C23,19.6568542 21.6568542,21 20,21 L4,21 C2.34314575,21 1,19.6568542 1,18 L1,12 C1,11.9611469 1.00226394,11.9224275 1.00674689,11.8840319 C1.02109958,11.758956 1.05861259,11.6409323 1.11482919,11.5343001 L4.55521744,4.66349573 C5.06208769,3.64487922 6.10161373,3.00060393 7.24,3 L16.7605306,3.00000014 C17.8989466,3.00060423 18.9389356,3.64551362 19.4441675,4.66226737 L22.8851708,11.5343001 Z M20.3809167,11 L17.6544694,5.55499986 C17.4856044,5.21517102 17.1389413,5.00020122 16.76,5 L7.24053064,4.99999986 C6.86105865,5.00020122 6.51439564,5.21517102 6.34553064,5.55499986 L3.61908344,11 L20.3809167,11 Z M21,13 L3,13 L3,18 C3,18.5522847 3.44771525,19 4,19 L20,19 C20.5522847,19 21,18.5522847 21,18 L21,13 Z M6,17 C5.44771525,17 5,16.5522847 5,16 C5,15.4477153 5.44771525,15 6,15 C6.55228475,15 7,15.4477153 7,16 C7,16.5522847 6.55228475,17 6,17 Z M10,17 C9.44771525,17 9,16.5522847 9,16 C9,15.4477153 9.44771525,15 10,15 C10.5522847,15 11,15.4477153 11,16 C11,16.5522847 10.5522847,17 10,17 Z" id="Combined-Shape" fill="#000000" fill-rule="nonzero"></path>
    </g>
</svg>

<svg width="24" height="24" viewBox="0 0 24 24" xmlns="http://www.w3.org/2000/svg"><path d="M22.885 11.534A.993.993 0 0 1 23 12v6a3 3 0 0 1-3 3H4a3 3 0 0 1-3-3v-6a1 1 0 0 1 .115-.466l3.44-6.87A3 3 0 0 1 7.24 3h9.52c1.139 0 2.179.646 2.684 1.662l3.441 6.872zM20.381 11l-2.727-5.445A1 1 0 0 0 16.76 5H7.24a1 1 0 0 0-.894.555L3.619 11h16.762zM21 13H3v5a1 1 0 0 0 1 1h16a1 1 0 0 0 1-1v-5zM6 17a1 1 0 1 1 0-2 1 1 0 0 1 0 2zm4 0a1 1 0 1 1 0-2 1 1 0 0 1 0 2z" fill-rule="nonzero"/></svg>
